svg/weather/heavy_rain_fill.svg

<?xml version="1.0" encoding="UTF-8"?>
<svg width="24px" height="24px" viewBox="0 0 24 24" version="1.1" xmlns="http://www.w3.org/2000/svg" xmlns:xlink="http://www.w3.org/1999/xlink">
    <title>heavy_rain_fill</title>
    <g id="Icon" stroke="none" stroke-width="1" fill="none" fill-rule="evenodd">
        <g id="Weather" transform="translate(-385.000000, -144.000000)" fill-rule="nonzero">
            <g id="heavy_rain_fill" transform="translate(385.000000, 144.000000)">
                <path d="M24,0 L24,24 L0,24 L0,0 L24,0 Z M12.5935,23.2578 L12.5819,23.2595 L12.5109,23.295 L12.4919,23.2987 L12.4767,23.295 L12.4057,23.2595 C12.3958,23.2564 12.387,23.259 12.3821,23.2649 L12.378,23.2758 L12.3609,23.7031 L12.3659,23.7235 L12.3769,23.7357 L12.4805,23.8097 L12.4953,23.8136 L12.5071,23.8097 L12.6107,23.7357 L12.6233,23.7197 L12.6267,23.7031 L12.6096,23.2758 C12.6076,23.2657 12.601,23.2593 12.5935,23.2578 Z M12.8584,23.1453 L12.8445,23.1473 L12.6598,23.2397 L12.6499,23.2499 L12.6472,23.2611 L12.6651,23.6906 L12.6699,23.7034 L12.6784,23.7105 L12.8793,23.8032 C12.8914,23.8069 12.9022,23.803 12.9078,23.7952 L12.9118,23.7812 L12.8777,23.1665 C12.8753,23.1546 12.8674,23.147 12.8584,23.1453 Z M12.143,23.1473 C12.1332,23.1424 12.1222,23.1453 12.1156,23.1526 L12.1099,23.1665 L12.0758,23.7812 C12.0751,23.7927 12.0828,23.8019 12.0926,23.8046 L12.1083,23.8032 L12.3092,23.7105 L12.3186,23.7024 L12.3225,23.6906 L12.3404,23.2611 L12.3372,23.2485 L12.3278,23.2397 L12.143,23.1473 Z" id="MingCute"></path>
                <path d="M9.88892,19.6559 C10.0319,19.1224 10.5802,18.8059 11.1137,18.9488 C11.6471,19.0917 11.9637,19.6401 11.8208,20.1736 L11.562,21.1395 C11.419,21.6729 10.8707,21.9895 10.3372,21.8466 C9.80374,21.7036 9.48716,21.1553 9.6301,20.6218 L9.88892,19.6559 Z M7.69367,17.7935 C8.22713,17.9365 8.54372,18.4848 8.40077,19.0183 L8.14196,19.9842 C7.99901,20.5177 7.45068,20.8343 6.91721,20.6913 C6.38374,20.5484 6.06716,20 6.2101,19.4666 L6.46892,18.5006 C6.61186,17.9672 7.1602,17.6506 7.69367,17.7935 Z M15.0273,17.7935 C15.5607,17.9365 15.8773,18.4848 15.7344,19.0183 L15.4755,19.9842 C15.3326,20.5177 14.7843,20.8343 14.2508,20.6913 C13.7173,20.5484 13.4008,20 13.5437,19.4666 L13.8025,18.5006 C13.9455,17.9672 14.4938,17.6506 15.0273,17.7935 Z M12.1489,15.0851 C12.6824,15.228 12.999,15.7764 12.856,16.3098 L12.5972,17.2758 C12.4543,17.8092 11.906,18.1258 11.3725,17.9829 C10.839,17.8399 10.5224,17.2916 10.6654,16.7581 L10.9242,15.7922 C11.0671,15.2587 11.6155,14.9422 12.1489,15.0851 Z M11.5,2 C14.2856,2 16.66,3.75154 17.5856,6.21198 C20.13,6.90766 22,9.23462 22,12 C22,14.6387 20.2967,16.8795 17.9296,17.683 C18.1608,17.3805 18.3379,17.0287 18.4425,16.6382 L18.7013,15.6722 C19.1301,14.0718 18.1804,12.4268 16.58,11.998 C15.2516,11.6421 13.8925,12.2359 13.2237,13.3632 C13.0486,13.2765 12.8624,13.2058 12.6664,13.1533 C12.0783,12.9957 11.4843,13.0242 10.9467,13.2028 C10.5564,12.6312 9.96742,12.1912 9.24641,11.998 C7.64601,11.5692 6.001,12.5189 5.57217,14.1193 L5.31335,15.0852 C5.17193,15.613 5.18044,16.1457 5.31279,16.638 C5.07803,16.8724 4.88013,17.1478 4.73156,17.457 C3.11029,16.6302 2,14.9448 2,13 C2,10.9486 3.23468,9.18749 5.00053,8.41614 C5.04543,4.86494 7.93814,2 11.5,2 Z M8.72894,13.9298 C9.26241,14.0728 9.57899,14.6211 9.43605,15.1546 L9.17723,16.1205 C9.03429,16.654 8.48595,16.9706 7.95249,16.8276 C7.41902,16.6847 7.10244,16.1363 7.24538,15.6029 L7.5042,14.6369 C7.64714,14.1035 8.19548,13.7869 8.72894,13.9298 Z M16.0625,13.9298 C16.596,14.0728 16.9126,14.6211 16.7696,15.1546 L16.5108,16.1205 C16.3679,16.654 15.8195,16.9706 15.2861,16.8276 C14.7526,16.6847 14.436,16.1363 14.579,15.6029 L14.8378,14.6369 C14.9807,14.1035 15.5291,13.7869 16.0625,13.9298 Z" id="形状" fill="#09244B"></path>
            </g>
        </g>
    </g>
</svg>

<svg xmlns="http://www.w3.org/2000/svg" width="24" height="24"><g fill="none" fill-rule="nonzero"><path d="M24 0v24H0V0h24ZM12.594 23.258l-.012.002-.071.035-.02.004-.014-.004-.071-.036c-.01-.003-.019 0-.024.006l-.004.01-.017.428.005.02.01.013.104.074.015.004.012-.004.104-.074.012-.016.004-.017-.017-.427c-.002-.01-.009-.017-.016-.018Zm.264-.113-.014.002-.184.093-.01.01-.003.011.018.43.005.012.008.008.201.092c.012.004.023 0 .029-.008l.004-.014-.034-.614c-.003-.012-.01-.02-.02-.022Zm-.715.002a.023.023 0 0 0-.027.006l-.006.014-.034.614c0 .012.007.02.017.024l.015-.002.201-.093.01-.008.003-.011.018-.43-.003-.012-.01-.01-.184-.092Z"/><path fill="#09244B" d="M9.889 19.656a1 1 0 0 1 1.932.518l-.259.966a1 1 0 0 1-1.932-.518l.259-.966Zm-2.195-1.862a1 1 0 0 1 .707 1.224l-.259.966a1 1 0 1 1-1.932-.517l.259-.966a1 1 0 0 1 1.225-.707Zm7.333 0a1 1 0 0 1 .707 1.224l-.258.966a1 1 0 1 1-1.932-.517l.258-.966a1 1 0 0 1 1.225-.707Zm-2.878-2.709a1 1 0 0 1 .707 1.225l-.259.966a1 1 0 1 1-1.932-.518l.26-.966a1 1 0 0 1 1.224-.707ZM11.5 2a6.502 6.502 0 0 1 6.086 4.212 6.002 6.002 0 0 1 .344 11.471 2.99 2.99 0 0 0 .512-1.045l.26-.966a3 3 0 0 0-5.478-2.309 3.01 3.01 0 0 0-2.277-.16 3 3 0 0 0-5.375.917l-.259.965a2.986 2.986 0 0 0 0 1.553c-.235.234-.433.51-.581.819A5 5 0 0 1 5 8.417 6.5 6.5 0 0 1 11.5 2ZM8.729 13.93a1 1 0 0 1 .707 1.225l-.259.966a1 1 0 1 1-1.932-.518l.26-.966a1 1 0 0 1 1.224-.707Zm7.334 0a1 1 0 0 1 .707 1.225l-.26.966a1 1 0 1 1-1.931-.518l.259-.966a1 1 0 0 1 1.225-.707Z"/></g></svg>
